evolvere-2-blue-mono/apps/18/google-drive.svg

<?xml version="1.0" encoding="UTF-8" standalone="no"?>
<!-- Created with Inkscape (http://www.inkscape.org/) -->
<svg xmlns:dc="http://purl.org/dc/elements/1.1/" xmlns:cc="http://creativecommons.org/ns#" xmlns:rdf="http://www.w3.org/1999/02/22-rdf-syntax-ns#" xmlns:svg="http://www.w3.org/2000/svg" xmlns="http://www.w3.org/2000/svg" xmlns:sodipodi="http://sodipodi.sourceforge.net/DTD/sodipodi-0.dtd" xmlns:inkscape="http://www.inkscape.org/namespaces/inkscape" width="18" height="18" id="svg13094" version="1.1" inkscape:version="0.48.3.1 r9886" sodipodi:docname="google-drive.svg">
  <sodipodi:namedview id="base" pagecolor="#ffffff" bordercolor="#666666" borderopacity="1.0" inkscape:pageopacity="0.0" inkscape:pageshadow="2" inkscape:zoom="45.254835" inkscape:cx="8.135842" inkscape:cy="6.9050331" inkscape:document-units="px" inkscape:current-layer="layer1" showgrid="true" inkscape:snap-bbox="true" inkscape:bbox-paths="true" inkscape:bbox-nodes="true" inkscape:snap-bbox-edge-midpoints="true" inkscape:snap-bbox-midpoints="true" inkscape:object-paths="true" inkscape:snap-intersection-paths="true" inkscape:object-nodes="true" inkscape:snap-smooth-nodes="true" inkscape:snap-midpoints="true" inkscape:snap-object-midpoints="true" inkscape:snap-center="true" showguides="false" inkscape:guide-bbox="true" inkscape:window-width="1920" inkscape:window-height="1023" inkscape:window-x="-10" inkscape:window-y="35" inkscape:window-maximized="1" inkscape:snap-global="false" fit-margin-top="0" fit-margin-left="0" fit-margin-right="0" fit-margin-bottom="0" showborder="true" inkscape:showpageshadow="false">
    <sodipodi:guide id="guide16149" position="6601.5878,647.00745" orientation="0,1"/>
    <sodipodi:guide id="guide16151" position="6374.4449,597.99875" orientation="0,1"/>
    <sodipodi:guide id="guide16153" position="6440.1591,622.50305" orientation="0,1"/>
    <sodipodi:guide id="guide17725" position="6433.7306,542.35585" orientation="0,1"/>
    <sodipodi:guide id="guide9456" position="6931.2289,150.48606" orientation="1,0"/>
    <sodipodi:guide id="guide9458" position="6755.4789,515.53501" orientation="0,1"/>
    <sodipodi:guide id="guide9468" position="6526.7092,460.6296" orientation="0,1"/>
    <sodipodi:guide id="guide9470" position="6551.2289,481.99958" orientation="0,1"/>
    <sodipodi:guide id="guide11159" position="6419.2289,196.00006" orientation="1,0"/>
    <sodipodi:guide id="guide13980" position="6732.2601,460.03461" orientation="1,0"/>
    <sodipodi:guide orientation="0,1" position="4878.229,-914.9999" id="guide3972"/>
    <sodipodi:guide orientation="1,0" position="5058.229,-1042.9999" id="guide3974"/>
    <sodipodi:guide orientation="0,1" position="4752.229,-1277.9998" id="guide3976"/>
    <sodipodi:guide orientation="1,0" position="4725.229,-1136.9999" id="guide3978"/>
    <sodipodi:guide orientation="1,0" position="74.999929,328.00006" id="guide4287"/>
    <sodipodi:guide orientation="0,1" position="74.999929,328.00006" id="guide4289"/>
    <inkscape:grid type="xygrid" id="grid3248" empspacing="5" visible="true" enabled="true" snapvisiblegridlinesonly="true" originx="9.7771128e-05px" originy="11.000061px"/>
  </sodipodi:namedview>
  <defs id="defs13096"/>
  <metadata id="metadata13099">
    <rdf:RDF>
      <cc:Work rdf:about="">
        <dc:format>image/svg+xml</dc:format>
        <dc:type rdf:resource="http://purl.org/dc/dcmitype/StillImage"/>
        <dc:title/>
      </cc:Work>
    </rdf:RDF>
  </metadata>
  <g transform="translate(8065.8735,-502.93229)" id="layer1" inkscape:groupmode="layer" inkscape:label="Camada 1">
    <path id="path3066" d="m -8060.1547,504.93229 4.0312,7 4.6875,0 -4.0625,-7 -4.6562,0 z m -0.6875,1 -4.0313,7 2.3438,4.03125 4.0312,-7 -2.3437,-4.03125 z m 1.875,6.96875 -2.3125,4.03125 8.0625,0 2.3437,-4.03125 -8.0937,0 z" style="color:#000000;fill:#27303a;fill-opacity:0.753280819999999968;fill-rule:nonzero;stroke:none;stroke-width:2;marker:none;visibility:visible;display:inline;overflow:visible;enable-background:accumulate" inkscape:connector-curvature="0" transform="translate(1,1)"/>
    <path style="font-size:medium;font-style:normal;font-variant:normal;font-weight:normal;font-stretch:normal;text-indent:0;text-align:start;text-decoration:none;line-height:normal;letter-spacing:normal;word-spacing:normal;text-transform:none;direction:ltr;block-progression:tb;writing-mode:lr-tb;text-anchor:start;baseline-shift:baseline;color:#000000;fill:#f1f3f5;fill-opacity:0.90288714000000003;fill-rule:nonzero;stroke:none;stroke-width:2;marker:none;visibility:visible;display:inline;overflow:visible;enable-background:accumulate;font-family:Sans;-inkscape-font-specification:Sans" d="m 5.46875,0.8125 c -0.5027828,0.11161689 -0.9040924,0.5798115 -0.9375,1.09375 -1.356e-4,0.010416 -1.356e-4,0.020834 0,0.03125 C 4.3126801,2.0359849 4.1249334,2.2016437 4,2.40625 l -4.03125,7 c -0.20485885,0.359845 -0.20485885,0.827655 0,1.1875 L 2.3125,14.625 c 0.3248305,0.559243 1.1437443,0.756389 1.6875,0.40625 0.1800104,0.102111 0.386795,0.156528 0.59375,0.15625 l 8.0625,0 c 0.415015,-0.0015 0.821562,-0.235601 1.03125,-0.59375 L 16.03125,10.5625 C 16.342279,10.028499 16.150731,9.2623105 15.625,8.9375 15.615087,8.7515022 15.561115,8.5679973 15.46875,8.40625 l -4.0625,-7 C 11.196562,1.0481013 10.790015,0.81402866 10.375,0.8125 l -4.65625,0 c -0.083031,-0.008695 -0.1669693,-0.008695 -0.25,0 z M 5.71875,2 10.375,2 14.4375,9 9.75,9 z m -0.6875,1 2.34375,4.03125 -4.03125,7 L 1,10 z m 1.875,6.96875 8.09375,0 L 12.65625,14 4.59375,14 z" transform="translate(-8064.8735,503.93229)" id="polygon3064" inkscape:connector-curvature="0" sodipodi:nodetypes="ccccccccccccccccccccccccccccccccc"/>
  </g>
</svg>

<?xml version="1.0" encoding="UTF-8"?>
<!-- Created with Inkscape (http://www.inkscape.org/) -->
<svg width="18" height="18" version="1.1" xmlns="http://www.w3.org/2000/svg" xmlns:cc="http://creativecommons.org/ns#" xmlns:dc="http://purl.org/dc/elements/1.1/" xmlns:rdf="http://www.w3.org/1999/02/22-rdf-syntax-ns#">
	<defs>
		<style id="current-color-scheme" type="text/css">.ColorScheme-Text {color:#090d11;}.ColorScheme-Background{color:#ffffff;}</style>
	</defs>
	<metadata>
		<rdf:RDF>
			<cc:Work rdf:about="">
				<dc:format>image/svg+xml</dc:format>
				<dc:type rdf:resource="http://purl.org/dc/dcmitype/StillImage"/>
			</cc:Work>
		</rdf:RDF>
	</metadata>
	<g transform="translate(8066.9,-501.93)">
		<path id="d" class="ColorScheme-Text" transform="translate(-8065.9,502.93)" d="m5.7188 2 4.0312 7h4.6875l-4.0625-7zm-0.6875 1-4.0312 7 2.3438 4.0312 4.0312-7zm1.875 6.9688-2.3125 4.0312h8.0625l2.3438-4.0312z" style="fill-opacity:.75;fill:currentColor"/>
		<path id="c" class="ColorScheme-Background" transform="translate(-8065.9,502.93)" d="m5.0586 1c-0.29546 0.20799-0.50381 0.54427-0.52734 0.90625-1.356e-4 0.010416-1.356e-4 0.020834 0 0.03125-0.21857 0.098485-0.40632 0.26414-0.53125 0.46875l-4.0312 7c-0.20486 0.35984-0.20486 0.82766 0 1.1875l2.3438 4.0312c0.08942 0.15395 0.21698 0.27979 0.36523 0.375h10.607c0.16357-0.10196 0.3049-0.23981 0.40234-0.40625l2.3438-4.0312c0.31103-0.534 0.11948-1.3002-0.40625-1.625-0.0099-0.186-0.06388-0.3695-0.15625-0.53125l-4.0625-7c-0.097446-0.16644-0.23878-0.30429-0.40234-0.40625zm0.66016 1h4.6562l4.0625 7h-4.6875zm-0.6875 1 2.3438 4.0312-4.0312 7-2.3438-4.0312zm1.875 6.9688h8.0938l-2.3438 4.0312h-8.0625z" style="fill-opacity:.5;fill:currentColor"/>
	</g>
</svg>
